X:1
T:Title
L:1/8
Q:1/4=100
M:4/4
K:Bb
V:1 treble nm="Grand Piano"
V:1
 D2 DE F2 FE | GFED D4 | D2 DE F2 FE | GFED C4 | C3 D E2 ED | FEED C3 A | AGGF F2 C2 | FEED D4 | %8
w: ????~??????? * * * * *||||||||
 G2 D2 G2 A2 | BcBA G4 | G2 D2 G2 A2 | BcBA G2 F2 | F2 C2 F2 G2 | ABAG F4 | E E2 G FEED | D8 |] %16
w: ||||||||

